X:1
T:Rusty Bob's Jig
M:6/8
L:1/8
K:G
S:From Ryan's Mammoth Collection
E|G2G GAB|A2A ABc|d2Bc2A|B2G AFE|!
G2G GAB|A2A ABc|dBG cAF|G3G2:|]!
d|g2g gag|f2f fgf|e2d efg|a2g fed|!
g2g gag|f2f fgf|efg fga|g3 g2d|!
g2g gag|f2f fgf|e2d efg|a2g fed|!
g3 Bcd|e3 ABc|dcB AGF|G3G2|]!
